X:930
T:Dermie Diamond's
R:reel
H:Originally a highland
Z:id:hn-reel-930
M:C|
L:1/8
K:D
B2BF ABde | fdef edcd | B2BF ABdb |1 afef dedc :|2 afef d3e ||
f2af ~g3b | afdf efde | fgaf gabg | afdf efd2 |
~f3a gabg | afdf efdc | B2BF ABdb | afef d2dc ||

